assets/images/logo-harvest-sync.svg

<svg fill="none" height="1896" viewBox="0 0 7716 1896" width="7716" xmlns="http://www.w3.org/2000/svg"><g fill="#fa5d00"><path clip-rule="evenodd" d="m4975 818.711h-160.75v-168.286h-121.17v168.286h-7.18c-50.4 0-87.58 35.365-87.58 86.6v25.602h94.76v337.837c0 106.09 58.78 164.63 165.56 164.63h116.36v-112.2h-99.58c-39.57 0-61.17-21.95-61.17-62.2v-328.067h62.37c37.21 0 60-9.762 76.78-28.027 13.22-14.643 21.6-35.395 21.6-59.769zm-687.4 245.129c-46.78-2.43-73.2-29.29-73.2-69.504 0-50.008 45.62-82.947 118.78-82.947 64.79 0 111.57 32.939 119.98 81.719h119.97c-8.4-114.627-103.19-189.04-239.95-189.04-142.73 0-236.33 76.838-236.33 195.149 0 106.123 64.79 168.283 177.56 175.623l117.55 7.31c53.99 3.65 80.4 29.28 80.4 71.95 0 51.24-46.81 86.6-125.99 86.6-76.75 0-131.97-37.79-140.34-91.48h-121.17c8.4 120.74 112.76 198.8 263.94 198.8 147.55 0 241.11-78.06 241.11-198.8 0-107.32-65.98-170.74-184.73-178.05zm-674.21 28.05c-13.19 13.42-21.6 31.72-25.19 52.47v-18.3c0-125.65 70.77-212.246 171.55-212.246 82.76 0 141.57 57.344 158.35 148.826h-220.75c-41.96 0-67.18 10.93-83.96 29.25zm429.47 41.48c0-195.151-97.15-329.302-283.11-329.302-172.77 0-291.52 130.498-291.52 321.992 0 186.58 116.35 321.96 299.92 321.96 141.54 0 245.94-78.06 266.3-198.8h-118.74c-18.01 54.89-77.98 89.03-146.36 89.03-106.79 0-166.76-71.96-178.75-173.17h452.26zm-843.36 170.74-158.35-485.399h-130.78l209.96 614.669h152.33l209.95-614.669h-124.76zm-439.1-485.43c-51.6 0-73.17 8.534-89.98 23.177-19.71 18.933-32.76 43.75-37.18 70.729v-93.906h-121.2v614.7h121.17v-493.933h133.17c53.99 0 77.98-12.187 94.76-30.483 13.22-15.84 21.59-36.592 21.59-59.769v-30.484h-122.3zm-626.23 524.45c-68.38 0-111.57-35.37-111.57-91.45 0-54.89 41.99-90.25 109.17-90.25h161.98v90.25c-39.61 59.74-91.21 91.45-159.58 91.45zm40.8-539.062c-151.15 0-251.95 85.372-257.93 215.872h119.94c7.24-64.621 60.01-106.126 133.17-106.126 75.59 0 123.6 46.386 123.6 118.306v108.55c-19.21-47.55-82.8-79.26-163.17-79.26-137.95 0-227.93 78.07-227.93 198.8 0 108.55 73.16 185.36 197.93 185.36 91.2 0 161.97-39.02 194.36-114.63v102.44h118.75v-414.67c0-130.467-93.56-214.642-238.72-214.642zm-548.22 0c-94.76 0-164.37 42.702-194.37 117.083v-339.03h-121.17v851.259h121.2v-485.399c47.95-19.524 91.14-28.027 133.17-28.027 94.76 0 143.93 41.442 143.93 126.816v386.61h121.17v-415.87c0-137.832-76.75-213.442-203.93-213.442z" fill-rule="evenodd"/><path clip-rule="evenodd" d="m438.837 1074.23v373.77h-61.798v-561.901c0-34.641 27.879-61.869 61.798-61.869h182.916v186.89c0 34.64-26.64 63.11-60.559 63.11zm551.163-626.23v936.88c0 34.65-27.848 63.12-61.767 63.12h-60.558v-938.131c0-34.642 26.639-61.869 60.558-61.869zm-244.682 0h60.558v936.88c0 34.65-27.847 63.12-60.558 63.12h-61.799v-688.131c0-34.642 27.88-61.869 61.799-61.869zm-490.636 1000h-60.558v-938.131c0-34.642 26.639-61.869 60.558-61.869h61.798v686.88c0 34.65-27.879 63.12-61.798 63.12zm-244.682 0v-938.131c0-34.642 27.8474-61.869 61.7666-61.869h60.5904v936.88c0 34.65-26.671 63.12-60.5904 63.12z" fill-rule="evenodd"/><path d="m5731.6 1280.2c0 29.6-6 56-18 79.2-12 22.4-28 41.6-48 57.6-20 15.2-43.6 27.2-70.8 36-26.4 8-54 12-82.8 12-39.2 0-77.6-6.4-115.2-19.2-37.6-13.6-73.2-32-106.8-55.2l63.6-70.8c24.8 28.8 51.6 52 80.4 69.6 28.8 16.8 60 25.2 93.6 25.2 36.8 0 66.8-10 90-30s34.8-46 34.8-78c0-27.2-8-49.6-24-67.2-16-18.4-36.4-34.4-61.2-48-24-14.4-50-27.6-78-39.6-28-12.8-54.4-26.8-79.2-42-24-15.2-44-33.2-60-54s-24-46.4-24-76.8c0-24 5.2-46 15.6-66 11.2-20 25.6-37.2 43.2-51.6 18.4-14.4 39.2-25.2 62.4-32.4 24-8 49.2-12 75.6-12 35.2 0 68.8 4.4 100.8 13.2 32.8 8.8 63.6 23.2 92.4 43.2l-57.6 63.6c-21.6-24.8-44.4-44-68.4-57.6-24-14.4-51.2-21.6-81.6-21.6-33.6 0-60.8 8-81.6 24-20 16-30 36.8-30 62.4 0 23.2 8 43.2 24 60 16.8 16.8 37.6 32.4 62.4 46.8s51.6 28.4 80.4 42c29.6 13.6 56.8 29.2 81.6 46.8 24.8 16.8 45.2 36.4 61.2 58.8 16.8 22.4 25.2 49.6 25.2 81.6zm656.55-451.2-234 532.8c-36 80-64.8 153.6-86.4 220.8-20.8 67.2-39.2 131.6-55.2 193.2h-94.8c28-57.6 54.4-112.4 79.2-164.4s48.8-104.4 72-157.2l-259.2-625.2h92.4l211.2 522c32-76 62.8-156 92.4-240 30.4-84.8 60.4-178.8 90-282zm95.66 624v-624h84v86.4c17.6-18.4 36.4-34 56.4-46.8 20.8-12.8 41.6-22.8 62.4-30 21.6-8 42.4-13.6 62.4-16.8 20.8-3.2 40-4.8 57.6-4.8 63.2 0 109.6 17.2 139.2 51.6 30.4 34.4 45.6 84 45.6 148.8v435.6h-84v-424.8c0-28-3.6-51.6-10.8-70.8-7.2-20-17.6-36-31.2-48-12.8-12-28.8-20.4-48-25.2-18.4-5.6-39.2-8.4-62.4-8.4-33.6 0-67.6 7.2-102 21.6-33.6 14.4-62 33.6-85.2 57.6v498zm1190.08-146.4c-17.6 28-37.6 52-60 72-21.6 20-44.4 36.4-68.4 49.2s-48.4 22-73.2 27.6c-24.8 6.4-48.8 9.6-72 9.6-36.8 0-72.4-6.8-106.8-20.4-33.6-14.4-63.6-34.8-90-61.2s-47.6-58.4-63.6-96c-15.2-38.4-22.8-81.6-22.8-129.6 0-47.2 8-91.6 24-133.2s38-77.6 66-108c28-31.2 61.6-55.6 100.8-73.2 40-17.6 83.2-26.4 129.6-26.4 44 0 83.2 7.6 117.6 22.8 35.2 14.4 65.6 32.4 91.2 54l-61.2 67.2c-26.4-30.4-54.4-52.8-84-67.2s-59.2-21.6-88.8-21.6c-28 0-54.8 6-80.4 18s-48 29.2-67.2 51.6c-19.2 21.6-34.8 48.4-46.8 80.4-11.2 31.2-16.8 66-16.8 104.4 0 32.8 4.4 65.2 13.2 97.2 9.6 32 24 60.8 43.2 86.4 19.2 24.8 43.2 44.8 72 60 29.6 15.2 64.4 22.8 104.4 22.8 38.4 0 76.4-7.6 114-22.8 38.4-16 74.4-41.6 108-76.8z"/></g></svg>

<svg width="7716" height="1896" viewBox="0 0 7716 1896" fill="none" xmlns="http://www.w3.org/2000/svg">
<path fill-rule="evenodd" clip-rule="evenodd" d="M4975 818.711H4814.25V650.425H4693.08V818.711H4685.9C4635.5 818.711 4598.32 854.076 4598.32 905.311V930.913H4693.08V1268.75C4693.08 1374.84 4751.86 1433.38 4858.64 1433.38H4975V1321.18H4875.42C4835.85 1321.18 4814.25 1299.23 4814.25 1258.98V930.913H4876.62C4913.83 930.913 4936.62 921.151 4953.4 902.886C4966.62 888.243 4975 867.491 4975 843.117V818.711ZM4287.6 1063.84C4240.82 1061.41 4214.4 1034.55 4214.4 994.336C4214.4 944.328 4260.02 911.389 4333.18 911.389C4397.97 911.389 4444.75 944.328 4453.16 993.108H4573.13C4564.73 878.481 4469.94 804.068 4333.18 804.068C4190.45 804.068 4096.85 880.906 4096.85 999.217C4096.85 1105.34 4161.64 1167.5 4274.41 1174.84L4391.96 1182.15C4445.95 1185.8 4472.36 1211.43 4472.36 1254.1C4472.36 1305.34 4425.55 1340.7 4346.37 1340.7C4269.62 1340.7 4214.4 1302.91 4206.03 1249.22H4084.86C4093.26 1369.96 4197.62 1448.02 4348.8 1448.02C4496.35 1448.02 4589.91 1369.96 4589.91 1249.22C4589.91 1141.9 4523.93 1078.48 4405.18 1071.17L4287.6 1063.84ZM3613.39 1091.89C3600.2 1105.31 3591.79 1123.61 3588.2 1144.36V1126.06C3588.2 1000.41 3658.97 913.814 3759.75 913.814C3842.51 913.814 3901.32 971.158 3918.1 1062.64H3697.35C3655.39 1062.64 3630.17 1073.57 3613.39 1091.89ZM4042.86 1133.37C4042.86 938.219 3945.71 804.068 3759.75 804.068C3586.98 804.068 3468.23 934.566 3468.23 1126.06C3468.23 1312.64 3584.58 1448.02 3768.15 1448.02C3909.69 1448.02 4014.09 1369.96 4034.45 1249.22H3915.71C3897.7 1304.11 3837.73 1338.25 3769.35 1338.25C3662.56 1338.25 3602.59 1266.29 3590.6 1165.08H4042.86V1133.37ZM3199.5 1304.11L3041.15 818.711H2910.37L3120.33 1433.38H3272.66L3482.61 818.711H3357.85L3199.5 1304.11ZM2760.4 818.68C2708.8 818.68 2687.23 827.214 2670.42 841.857C2650.71 860.79 2637.66 885.607 2633.24 912.586V818.68H2512.04V1433.38H2633.21V939.447H2766.38C2820.37 939.447 2844.36 927.26 2861.14 908.964C2874.36 893.124 2882.73 872.372 2882.73 849.195V818.711H2760.43L2760.4 818.68ZM2134.17 1343.13C2065.79 1343.13 2022.6 1307.76 2022.6 1251.68C2022.6 1196.79 2064.59 1161.43 2131.77 1161.43H2293.75V1251.68C2254.14 1311.42 2202.54 1343.13 2134.17 1343.13ZM2174.97 804.068C2023.82 804.068 1923.02 889.44 1917.04 1019.94H2036.98C2044.22 955.319 2096.99 913.814 2170.15 913.814C2245.74 913.814 2293.75 960.2 2293.75 1032.12V1140.67C2274.54 1093.12 2210.95 1061.41 2130.58 1061.41C1992.63 1061.41 1902.65 1139.48 1902.65 1260.21C1902.65 1368.76 1975.81 1445.57 2100.58 1445.57C2191.78 1445.57 2262.55 1406.55 2294.94 1330.94V1433.38H2413.69V1018.71C2413.69 888.243 2320.13 804.068 2174.97 804.068ZM1626.75 804.068C1531.99 804.068 1462.38 846.77 1432.38 921.151V582.121H1311.21V1433.38H1432.41V947.981C1480.36 928.457 1523.55 919.954 1565.58 919.954C1660.34 919.954 1709.51 961.396 1709.51 1046.77V1433.38H1830.68V1017.51C1830.68 879.678 1753.93 804.068 1626.75 804.068Z" fill="#FA5D00"/>
<path fill-rule="evenodd" clip-rule="evenodd" d="M438.837 1074.23V1448H377.039V886.099C377.039 851.458 404.918 824.23 438.837 824.23H621.753V1011.12C621.753 1045.76 595.113 1074.23 561.194 1074.23H438.837ZM990 448V1384.88C990 1419.53 962.152 1448 928.233 1448H867.675V509.869C867.675 475.227 894.314 448 928.233 448H990ZM745.318 448H805.876V1384.88C805.876 1419.53 778.029 1448 745.318 1448H683.519V759.869C683.519 725.227 711.399 698 745.318 698V448ZM254.682 1448H194.124V509.869C194.124 475.227 220.763 448 254.682 448H316.48V1134.88C316.48 1169.53 288.601 1198 254.682 1198V1448ZM10 1448V509.869C10 475.227 37.8474 448 71.7666 448H132.357V1384.88C132.357 1419.53 105.686 1448 71.7666 1448H10Z" fill="#FA5D00"/>
<path d="M5731.6 1280.2C5731.6 1309.8 5725.6 1336.2 5713.6 1359.4C5701.6 1381.8 5685.6 1401 5665.6 1417C5645.6 1432.2 5622 1444.2 5594.8 1453C5568.4 1461 5540.8 1465 5512 1465C5472.8 1465 5434.4 1458.6 5396.8 1445.8C5359.2 1432.2 5323.6 1413.8 5290 1390.6L5353.6 1319.8C5378.4 1348.6 5405.2 1371.8 5434 1389.4C5462.8 1406.2 5494 1414.6 5527.6 1414.6C5564.4 1414.6 5594.4 1404.6 5617.6 1384.6C5640.8 1364.6 5652.4 1338.6 5652.4 1306.6C5652.4 1279.4 5644.4 1257 5628.4 1239.4C5612.4 1221 5592 1205 5567.2 1191.4C5543.2 1177 5517.2 1163.8 5489.2 1151.8C5461.2 1139 5434.8 1125 5410 1109.8C5386 1094.6 5366 1076.6 5350 1055.8C5334 1035 5326 1009.4 5326 979C5326 955 5331.2 933 5341.6 913C5352.8 893 5367.2 875.8 5384.8 861.4C5403.2 847 5424 836.2 5447.2 829C5471.2 821 5496.4 817 5522.8 817C5558 817 5591.6 821.4 5623.6 830.2C5656.4 839 5687.2 853.4 5716 873.4L5658.4 937C5636.8 912.2 5614 893 5590 879.4C5566 865 5538.8 857.8 5508.4 857.8C5474.8 857.8 5447.6 865.8 5426.8 881.8C5406.8 897.8 5396.8 918.6 5396.8 944.2C5396.8 967.4 5404.8 987.4 5420.8 1004.2C5437.6 1021 5458.4 1036.6 5483.2 1051C5508 1065.4 5534.8 1079.4 5563.6 1093C5593.2 1106.6 5620.4 1122.2 5645.2 1139.8C5670 1156.6 5690.4 1176.2 5706.4 1198.6C5723.2 1221 5731.6 1248.2 5731.6 1280.2ZM6388.15 829L6154.15 1361.8C6118.15 1441.8 6089.35 1515.4 6067.75 1582.6C6046.95 1649.8 6028.55 1714.2 6012.55 1775.8H5917.75C5945.75 1718.2 5972.15 1663.4 5996.95 1611.4C6021.75 1559.4 6045.75 1507 6068.95 1454.2L5809.75 829H5902.15L6113.35 1351C6145.35 1275 6176.15 1195 6205.75 1111C6236.15 1026.2 6266.15 932.2 6295.75 829H6388.15ZM6483.81 1453V829H6567.81V915.4C6585.41 897 6604.21 881.4 6624.21 868.6C6645.01 855.8 6665.81 845.8 6686.61 838.6C6708.21 830.6 6729.01 825 6749.01 821.8C6769.81 818.6 6789.01 817 6806.61 817C6869.81 817 6916.21 834.2 6945.81 868.6C6976.21 903 6991.41 952.6 6991.41 1017.4V1453H6907.41V1028.2C6907.41 1000.2 6903.81 976.6 6896.61 957.4C6889.41 937.4 6879.01 921.4 6865.41 909.4C6852.61 897.4 6836.61 889 6817.41 884.2C6799.01 878.6 6778.21 875.8 6755.01 875.8C6721.41 875.8 6687.41 883 6653.01 897.4C6619.41 911.8 6591.01 931 6567.81 955V1453H6483.81ZM7673.89 1306.6C7656.29 1334.6 7636.29 1358.6 7613.89 1378.6C7592.29 1398.6 7569.49 1415 7545.49 1427.8C7521.49 1440.6 7497.09 1449.8 7472.29 1455.4C7447.49 1461.8 7423.49 1465 7400.29 1465C7363.49 1465 7327.89 1458.2 7293.49 1444.6C7259.89 1430.2 7229.89 1409.8 7203.49 1383.4C7177.09 1357 7155.89 1325 7139.89 1287.4C7124.69 1249 7117.09 1205.8 7117.09 1157.8C7117.09 1110.6 7125.09 1066.2 7141.09 1024.6C7157.09 983 7179.09 947 7207.09 916.6C7235.09 885.4 7268.69 861 7307.89 843.4C7347.89 825.8 7391.09 817 7437.49 817C7481.49 817 7520.69 824.6 7555.09 839.8C7590.29 854.2 7620.69 872.2 7646.29 893.8L7585.09 961C7558.69 930.6 7530.69 908.2 7501.09 893.8C7471.49 879.4 7441.89 872.2 7412.29 872.2C7384.29 872.2 7357.49 878.2 7331.89 890.2C7306.29 902.2 7283.89 919.4 7264.69 941.8C7245.49 963.4 7229.89 990.2 7217.89 1022.2C7206.69 1053.4 7201.09 1088.2 7201.09 1126.6C7201.09 1159.4 7205.49 1191.8 7214.29 1223.8C7223.89 1255.8 7238.29 1284.6 7257.49 1310.2C7276.69 1335 7300.69 1355 7329.49 1370.2C7359.09 1385.4 7393.89 1393 7433.89 1393C7472.29 1393 7510.29 1385.4 7547.89 1370.2C7586.29 1354.2 7622.29 1328.6 7655.89 1293.4L7673.89 1306.6Z" fill="#FA5D00"/>
</svg>
